X:539
T:Thistle of Scotland #2, The
C:Joe Buchanan's Scottish Tome - Page 065.1
I:065 1
Z:Carl Allison
R:Reel
L:1/8
M:4/4
K:A
E>F | "A"A2 "E"Ac "A"A2 "D"AF | "A"E2 "C#m"E>F "A"E2 "E7"AB | "A"c2 "E"BA "A"A2 ec | "B7"B2 B>c "D#"B2 E>F | 
"A"A2 "E"Ac "A"A2 "D"AF | "A"E2 "C#m"EF "A"E2 "E7"A>B | "A"ce"C#m"ce "E7"dB | "A"A2 "D"A>B "A"A2-> A2 :| 
A>B | "A"c2 "C#m"ce "A"c2 "G#"BA | "D"F2 "F#"FA "A"E2 "E7"AB | "A"c2 "E"BA "F#"e2 "C"Ac | "B7"B2 "D# d7"B>c "E"B2 E>F | 
"A"A>B"C#"ce "A"e2 "G#"cB | "D"F>A"F#"FA "A"E2 "E7"A>B | "A"cece "A"E2 "E7"A>B | "A"A2 "D"A>B "A"A2-> A2 :| 
%
W:Errata: Changed all of the "C#" chords to "C#m" and last chord of each part to "A" from "C#".

